!!!OPR: String Quartet in C minor, Op. 51, No. 1
!!!OPS: Op. 51
!!!ONM: No. 1
!!!OMV: No. 3
!!!OTL: Allegretto molto moderato e commodo -- Un poco pi&ugrave; animato
!!!COM: Brahms, Johannes
**kern	**dynam	**kern	**dynam	**kern	**dynam	**kern	**dynam
*staff4	*staff4	*staff3	*staff3	*staff2	*staff2	*staff1	*staff1
*>[I,A,A,B,C,C,D]	*>[I,A,A,B,C,C,D]	*>[I,A,A,B,C,C,D]	*>[I,A,A,B,C,C,D]	*>[I,A,A,B,C,C,D]	*>[I,A,A,B,C,C,D]	*>[I,A,A,B,C,C,D]	*>[I,A,A,B,C,C,D]
*>norep[I,A,B,C,D]	*>norep[I,A,B,C,D]	*>norep[I,A,B,C,D]	*>norep[I,A,B,C,D]	*>norep[I,A,B,C,D]	*>norep[I,A,B,C,D]	*>norep[I,A,B,C,D]	*>norep[I,A,B,C,D]
*>I	*>I	*>I	*>I	*>I	*>I	*>I	*>I
*Icello	*Icello	*Iviola	*Iviola	*Ivioln	*Ivioln	*Ivioln	*Ivioln
*clefF4	*clefF4	*clefC3	*clefC3	*clefG2	*clefG2	*clefG2	*clefG2
*k[b-e-a-d-]	*k[b-e-a-d-]	*k[b-e-a-d-]	*k[b-e-a-d-]	*k[b-e-a-d-]	*k[b-e-a-d-]	*k[b-e-a-d-]	*k[b-e-a-d-]
*M4/8	*M4/8	*M4/8	*M4/8	*M4/8	*M4/8	*M4/8	*M4/8
*MM112	*MM112	*MM112	*MM112	*MM112	*MM112	*MM112	*MM112
8FF^/	p	([8f\	p	8A-^/ 8a-^/	.	(16dd-^\LL	.
.	.	.	.	.	.	16cc\JJ)	.
=1!|:	=1!|:	=1!|:	=1!|:	=1!|:	=1!|:	=1!|:	=1!|:
*>A	*>A	*>A	*>A	*>A	*>A	*>A	*>A
8GG'/L	.	8f\L]	>	8G'/L 8dn'/	.	(16cc\LL	p
.	.	.	.	.	.	16bn\JJ)	.
8GG'/	.	16dn\L	.	8G'/ 8d'/	.	(16b/LL	.
.	.	16e-\JJ	.	.	.	16a-/JJ)	.
8GG'/J	.	8f\)	.	8G'/J 8d'/	.	(16a-/LL	.
.	.	.	.	.	.	16g/JJ)	.
8FF^/	.	([8f\	<	8A-^/ 8a-^/	.	(16dd-^\LL	.
.	.	.	.	.	.	16cc\JJ)	.
=2	=2	=2	=2	=2	=2	=2	=2
8GG'/L	.	8f\L]	>	8G'/L 8dn'/	.	(16cc\LL	.
.	.	.	.	.	.	16bn\JJ)	.
8GG'/	.	16dn\L	.	8G'/ 8d'/	.	(16b/LL	.
.	.	16e-\JJ	.	.	.	16a-/JJ)	.
8GG'/J	.	8f\)	.	8G'/J 8d'/	.	(16a-/LL	.
.	.	.	.	.	.	16g/JJ)	.
8CC'/	.	[8a-\	.	8A-/ 8a-/	.	(16ff\LL	.
.	.	.	.	.	.	16ee-\JJ)	.
=3	=3	=3	=3	=3	=3	=3	=3
8DD-'/L	.	8a-\]	.	8A-'/L 8f'/	.	(16ee-\LL	.
.	.	.	.	.	.	16dd-\JJ)	.
8EE-'/	.	4A-/	.	8e-'/	.	(16dd-\LL	.
.	.	.	.	.	.	16cc\JJ)	.
8FF'/J	.	.	.	8dn'/	.	(16cc\LL	.
.	.	.	.	.	.	16b-\JJ)	.
8AA-'/	.	([8B-/	.	8B-'/J 8d'/	.	(16b-\LL	.
.	.	.	.	.	.	16cc\JJ)	.
=4	=4	=4	=4	=4	=4	=4	=4
8GG'/L	.	8B-\L]	.	8B-'/L 8e-'/	.	(16cc\LL	.
.	.	.	.	.	.	16b-\JJ)	.
8FF'/	.	8a-\	.	8B-'/ 8dn'/	.	(16b-\LL	.
.	.	.	.	.	.	16cc\JJ)	.
8EE-'/J	.	8g\J)	.	8B-'/J 8e-'/	.	(16cc\LL	.
.	.	.	.	.	.	16b-\JJ)	.
8FF^/	.	([8f\	.	8A-^/ 8a-^/	.	(16dd-^\LL	.
.	.	.	.	.	.	16cc\JJ)	.
=5	=5	=5	=5	=5	=5	=5	=5
8GG'/L	.	8f\L]	.	8G'/L 8dn'/	.	(16cc\LL	.
.	.	.	.	.	.	16bn\JJ)	.
8GG'/	.	16dn\L	.	8G'/ 8d'/	.	(16b/LL	.
.	.	16e-\JJ	.	.	.	16a-/JJ)	.
8GG'/J	.	8f\)	.	8G'/J 8d'/	.	(16a-/LL	.
.	.	.	.	.	.	16g/JJ)	.
8FF^/	.	([8f\	.	8A-^/ 8a-^/	.	(16dd-^\LL	.
.	.	.	.	.	.	16cc\JJ)	.
=6	=6	=6	=6	=6	=6	=6	=6
8GG'/L	.	8f\L]	.	8G'/L 8dn'/	.	(16cc\LL	.
.	.	.	.	.	.	16bn\JJ)	.
8GG'/	.	16dn\L	.	8G'/ 8d'/	.	(16b/LL	.
.	.	16e-\JJ	.	.	.	16a-/JJ)	.
8GG'/J	.	8f\)	.	8G'/J 8d'/	.	(16a-/LL	.
.	.	.	.	.	.	16g/JJ)	.
8EEn/	.	(8d-\	.	8g/	.	(16b-/LL	.
.	.	.	.	.	.	16an/JJ)	.
=7	=7	=7	=7	=7	=7	=7	=7
8FF/L	.	8c\)	.	8f/L	.	(16an/LL	.
.	.	.	.	.	.	16a-/JJ)	.
8FF#/	>	4C/	>	8c/ 8e-/	.	(16a-/LL	.
.	.	.	.	.	.	16g/JJ)	.
8GG/	.	.	.	8c/ 8e-/	.	(16g/LL	.
.	.	.	.	.	.	16f#/JJ)	.
8AA-/J	.	(8E-/	.	8c/J 8e-/	.	(16f#/LL	.
.	.	.	.	.	.	16g/JJ)	.
=8	=8	=8	=8	=8	=8	=8	=8
8GG/L	>	8G/L	.	8c/L 8e-/	.	(16g/LL	.
.	.	.	.	.	.	16e-/JJ)	.
8GG/	.	8F/	.	8Bn/	.	(16e-/LL	.
.	.	.	.	.	.	16dn/JJ)	.
8CC/J	.	8En/J)	.	8G/J	.	(16d/LL	.
.	.	.	.	.	.	16c/JJ)	.
(16C/LL	.	(16C/LL	.	(16c/LL	.	(16c/LL	.
16D-/JJ)	.	16D-/JJ)	.	16d-/JJ)	.	16d-/JJ)	.
=9	=9	=9	=9	=9	=9	=9	=9
(16D-/LL	.	4.D-/	.	(16d-/LL	.	4.d-/	.
16BB-/JJ)	.	.	.	16B-/JJ)	.	.	.
(16BB-/LL	.	.	.	(16B-/LL	.	.	.
16AA-/JJ)	.	.	.	16A-/JJ)	.	.	.
(16AA-/LL	.	.	.	(16A-/LL	.	.	.
16GG/JJ)	.	.	.	16G/JJ)	.	.	.
(16C/LL	.	(16C/LL	.	(16c/LL	.	(16c/LL	.
16D-/JJ)	.	16D-/JJ)	.	16d-/JJ)	.	16d-/JJ)	.
=10	=10	=10	=10	=10	=10	=10	=10
(16D-/LL	.	4.D-/	.	(16d-/LL	.	4.d-/	.
16BB-/JJ)	.	.	.	16B-/JJ)	.	.	.
(16BB-/LL	.	.	.	(16B-/LL	.	.	.
16AA-/JJ)	.	.	.	16A-/JJ)	.	.	.
(16AA-/LL	.	.	.	(16A-/LL	.	.	.
16GG/JJ)	.	.	.	16G/JJ)	.	.	.
(16C/LL	.	(16C/LL	.	(16c/LL	.	(16c/LL	.
16D-/JJ)	.	16D-/JJ)	.	16d-/JJ)	.	16d-/JJ)	.
=11	=11	=11	=11	=11	=11	=11	=11
(16D-/LL	.	(8.D-/L	.	(16d-/LL	.	(8.d-/L	.
16BB-/)	.	.	.	16B-/JJ)	.	.	.
(16BB-/	.	.	.	(16B-/LL	.	.	.
16AA-/JJ)	.	16F-/Jk)	.	16A-/JJ)	.	16f-/Jk)	.
(16AA-/LL	.	(8.F-/L	.	(16A-/LL	.	(8.f-/L	.
16GG/)	.	.	.	16G/JJ)	.	.	.
(16GG/	.	.	.	(16G/LL	.	.	.
16E-/JJ)	.	16E-/Jk)	.	16e-/JJ)	.	16e-/Jk)	.
=12	=12	=12	=12	=12	=12	=12	=12
(16E-/LL	<	(8.E-/L	.	(16e-/LL	.	(8.e-/L	.
16C/)	.	.	.	16c/JJ)	<	.	.
(16C/	.	.	.	(16c/LL	.	.	.
16BB-/JJ)	.	16G-/Jk)	<	16B-/JJ)	.	16g-/Jk)	.
(16BB-/LL	.	(8.G-/L	.	(16B-/LL	.	(8.g-/L	.
16AAn/)	.	.	.	16An/JJ)	.	.	.
(16AA/	.	.	.	(16A/LL	.	.	.
16F/JJ)	.	16Fn/Jk)	.	16f/JJ)	.	16fn/Jk)	.
=13	=13	=13	=13	=13	=13	=13	=13
(16F\LL	.	(8.F/L	.	8.f/L	.	(8.f/L	.
16E-\)	.	.	.	.	.	.	.
(16E-\	.	.	.	.	.	.	.
16D-\JJ)	.	16A-/Jk)	.	16f/Jk	.	16a-/Jk)	.
(16D-/LL	.	(8.A-/L	.	(16f/LL	.	(8.a-/L	.
16C/)	.	.	.	16e-/JJ)	.	.	.
(16C/	.	.	.	(16e-/LL	.	.	.
16BBn/JJ)	.	16Gn/Jk)	.	16dn/JJ)	.	16gn/Jk)	.
=14	=14	=14	=14	=14	=14	=14	=14
(16BBn/LL	>	(16G/LL	>	(16dn/LL	>	(8g/	.
16C/)	.	16E-/)	.	16c/JJ)	.	.	.
(16C/	.	(16E-/	.	(16c/LL	.	8e-/)	.
16FF/JJ)	.	16c/JJ)	.	16A-/JJ)	.	.	.
(16FF/LL	.	(16A-/LL	.	(16c/LL	.	(8.dn/L	.
16GG/)	.	16F/)	.	16Bn/JJ)	.	.	.
(16GG/	.	(16F/	.	(16B/LL	.	.	.
16CC/JJ)	.	16E-/JJ)	.	16c/JJ)	.	16c/Jk)	.
=15	=15	=15	=15	=15	=15	=15	=15
*^	*	*	*	*	*	*	*
2CC/	16CC/LL	p	8E-/	p	(16c/LL	p	8c/	p
.	16CC/	.	.	.	16g/JJ)	<	.	.
.	16CC/	.	(8G/L	.	(8g/L	.	(8.ee-\L	.
.	16CC/	.	.	.	.	.	.	.
.	16CC/	.	8F#/	.	8f#/	>	.	.
.	16CC/	.	.	.	.	.	16ddn\L	.
.	16CC/	.	8Fn/J	.	8fn/J	.	16an\	.
.	16CC/JJ	.	.	.	.	.	16bn\JJ	.
=16	=16	=16	=16	=16	=16	=16	=16	=16
2CC/	16CC/LL	.	8En/L	.	8en/L	.	16g/LL	.
.	16CC/	.	.	.	.	.	16cc/JJ)	.
.	16CC/	.	8E-/	.	8e-/	.	(16g/LL	.
.	16CC/	.	.	.	.	.	16a-/	.
.	16CC/	.	8Dn/J)	.	8dn/J)	.	16f/	.
.	16CC/	.	.	.	.	.	16b-/JJ)	.
.	16CC/	.	[8C/	.	[8c/	.	(16e-/LL	.
.	16CC/JJ	.	.	.	.	.	16a-/JJ	.
=17	=17	=17	=17	=17	=17	=17	=17	=17
8CC/L	16CC/LL	.	8C/]	.	8c/]	.	16cc\LL	.
.	16CC/	.	.	.	.	.	16a-\JJ)	.
8EE-/J	16EE-/	.	(8E-/L	.	(16B-/LL	.	4g/	.
.	16EE-/	.	.	.	16e-/	.	.	.
8EE-/L	16EE-/	.	16G/L	.	16g/	.	.	.
.	16EE-/	.	16E-/JJ)	.	16e-/JJ)	.	.	.
8FF/J	16FF/	.	[8Dn/	.	([8dn/	.	(16a-/LL	.
.	16FF/JJ	.	.	.	.	.	16g/JJ	.
*v	*v	*	*	*	*	*	*	*
=18	=18	=18	=18	=18	=18	=18	=18
16FF/LL	.	8D/]	.	16d/LL]	.	16f/LL	.
16FF/JJ	.	.	.	16c/JJ)	.	16e-/J)	.
(16GG/LL	.	(8G/L	.	(8Bn/L	.	([8dn/J	.
16FF/	.	.	.	.	.	.	.
16EE-/	.	8Bn/J	.	8f/	.	16d/LL]	.
16DDn/JJ)	.	.	.	.	.	16g/JJ)	.
16CC/LL	.	16dn/LL	.	8bn/J	.	(16g\LL	.
16CC/JJ	.	16G/JJ	.	.	.	16ddn\JJ)	.
=19	=19	=19	=19	=19	=19	=19	=19
*^	*	*	*	*	*	*	*
2CC/	16CC/LL	<	16Bn\LL	.	8ff\)	<	(16ddn\LL	.
.	16CC/	.	16dn\JJ)	.	.	.	16gg\JJ)	.
.	16CC/	>	(8.e-\L	.	([8.ee-\L	>	(8gg\L	.
.	16CC/	.	.	.	.	.	.	.
.	16CC/	.	.	.	.	.	8ff#\	.
.	16CC/	.	16d\L	.	16ddn\L	.	.	.
.	16CC/	.	16An\	.	16an\	.	8ffn\J	.
.	16CC/JJ	.	16B\JJ	.	16bn\JJ	.	.	.
=20	=20	=20	=20	=20	=20	=20	=20	=20
2CC/	16CC/LL	.	16G/LL	.	16g/LL	.	8een\L	.
.	16CC/	.	16c/JJ)	.	16cc/JJ)	.	.	.
.	16CC/	.	(16G/LL	.	(16g/LL	.	8ee-\	.
.	16CC/	.	16A-/	.	16a-/	.	.	.
.	16CC/	.	16F/	.	16f/	.	8ddn\)	.
.	16CC/	.	16B-/JJ)	.	16b-/JJ)	.	.	.
.	16CC/	.	(16E-/LL	.	(16e-/LL	.	[8cc\J	.
.	16CC/JJ	.	16A-/JJ	.	16a-/JJ	.	.	.
=21	=21	=21	=21	=21	=21	=21	=21	=21
8CC/L	16CC/LL	.	16c/LL	.	16cc/LL	.	8cc\]	.
.	16CC/	.	16A-/J)	.	16a-/J)	.	.	.
8EE-/J	16EE-/	.	[8G/J	.	[8g/J	.	(16b-\LL	.
.	16EE-/	.	.	.	.	.	16ee-\	.
8EE-/L	16EE-/	.	8G/L]	.	8g/L]	.	16gg\	.
.	16EE-/	.	.	.	.	.	16ee-\JJ)	.
8AA-/J	16AA-/	.	(16E-/L	.	(16e-/L	.	[8cc\	.
.	16AA-/JJ	.	16A-/JJ	.	16a-/JJ	.	.	.
=22	=22	=22	=22	=22	=22	=22	=22	=22
8AA-/L	16AA-/LL	.	16c/LL	.	16cc/LL)	.	8cc\]	.
.	16AA-/	.	16A-/J)	.	16a-/J	.	.	.
8E-/J	16E-\	.	[8G/J	.	[8g/J	.	16b-\LL	.
.	16E-\	.	.	.	.	.	16ddn\	.
8E-/L	16E-\	.	8G/L]	.	8g/L]	.	16ee-\	.
.	16E-\	.	.	.	.	.	16b-\JJ	.
8FF/J	16FF/	.	(16A-/L	.	16a-/L	.	[8dd\	.
.	16FF/JJ	.	16G/JJ	.	16g/JJ	.	.	.
=23	=23	=23	=23	=23	=23	=23	=23	=23
4FF/	16FF/LL	.	16F/LL	.	16f/LL	.	(16dd\LL]	.
.	16FF/	.	16E-/JJ)	.	16e-/	.	16cc\	.
.	16FF/	.	4Dn/	.	16dn/	.	16b-\	.
.	16FF/JJ	.	.	.	16c/JJ	.	16a-\JJ)	.
*v	*v	*	*	*	*	*	*	*
16GG/LL	.	.	.	4Bn/	.	(16g/LL	.
16GG/	.	.	.	.	.	16f/	.
(16GG/	.	8G/	.	.	.	16e-/	.
16FF/JJ	.	.	.	.	.	16dn/JJ)	.
=24	=24	=24	=24	=24	=24	=24	=24
16EE-/LL	p	8C/	p	8G/	p	8c/	.
16DDn/J	.	.	.	.	.	.	.
8CC/J)	.	8r	.	8r	.	8r	.
16r	.	4E-/	.	8G/	.	8c/	.
(16DD/LK	.	.	.	.	.	.	.
8CC/J)	.	.	.	8r	.	8r	.
=25	=25	=25	=25	=25	=25	=25	=25
16r	.	8E-/	.	8G/	.	(8c/	.
(16DDn/LK	.	.	.	.	.	.	.
8CC/J)	.	8r	.	8r	.	16e-/LL	.
.	.	.	.	.	.	16g/JJ	.
4r	.	4r	.	16r	.	16cc\LL	.
.	.	.	.	(16c/LL	.	16ee-\JJ	.
.	.	.	.	16B-/	.	[8gg\)	.
.	.	.	.	16d-/JJ	.	.	.
=26	=26	=26	=26	=26	=26	=26	=26
4r	.	16r	.	16g/LL	.	8gg\]	.
.	.	(16G/LL	.	16b-/JJ)	.	.	.
.	.	16F/	.	4a-/	.	16dd-\LL	.
.	.	16A-/JJ	.	.	.	[16ff\JJ	.
8r	.	16d-\LL	.	.	.	16ff\LL]	.
.	.	16e-\JJ)	.	.	.	16a-\JJ	.
8FF/	.	[8f\	.	8A-/ 8a-/	.	16dd-\LL	.
.	.	.	.	.	.	16cc\JJ	.
=27:|!	=27:|!	=27:|!	=27:|!	=27:|!	=27:|!	=27:|!	=27:|!
*>B	*>B	*>B	*>B	*>B	*>B	*>B	*>B
16r	.	4E-/	.	8G/	.	(8c/	.
(16DDn/LK	.	.	.	.	.	.	.
8CC/J)	.	.	.	8r	.	16e-/LL	.
.	.	.	.	.	.	16g/JJ	.
8r	.	4r	.	16r	.	16cc\LL	.
.	.	.	.	(16G/LL	.	16ee-\JJ	.
8r	.	.	.	16c/	.	[8gg\)	.
.	.	.	.	16e-/JJ	.	.	.
=28	=28	=28	=28	=28	=28	=28	=28
4r	.	16r	.	16g\LL	.	4gg\_	.
.	.	(16E-/LL	.	16cc\J	.	.	.
.	.	16G/	.	[8ee-\J)	.	.	.
.	.	16c/JJ	.	.	.	.	.
8r	.	16e-\LL	.	8.ee-\L]	.	8.gg\L]	.
.	.	16g\	.	.	.	.	.
([8e-\	p	16cc\)	.	.	.	.	.
.	.	[16cc\JJ	p	[16ee-\Jk	p	[16gg\Jk	p
=29	=29	=29	=29	=29	=29	=29	=29
8e-\L]	.	16cc\LK]	.	16ee-\LK]	.	16gg\LK]	.
.	.	8cc\	.	8ee-\	.	8gg\	.
16c\L	.	.	.	.	.	.	.
16dn\JJ	.	[16cc\Jk	.	[16ee-\Jk	.	[16gg\Jk	.
8e-\)	.	16cc\LK]	.	16ee-\LK]	.	16gg\LK]	.
.	.	8cc\	.	8ee-\	.	8gg\	.
([8e-\	.	.	.	.	.	.	.
.	.	[16b-\Jk	.	[16ee-\Jk	.	[16ff#\Jk	.
=30	=30	=30	=30	=30	=30	=30	=30
8e-\L]	.	16b-\LK]	.	16ee-\LK]	.	16ff#\LK]	.
.	.	8b-\	.	8ee-\	.	8ff#\	.
16c\L	.	.	.	.	.	.	.
16d-\JJ	.	[16b-\Jk	.	[16ee-\Jk	.	[16ff#\Jk	.
8e-\)	.	16b-\LK]	.	16ee-\LK]	.	16ff#\LK]	.
.	.	8b-\	.	8ee-\	.	8ff#\	.
[8f#\	.	.	.	.	.	.	.
.	.	[16b-\Jk	.	[16cc#\Jk	.	[16een\Jk	.
=31	=31	=31	=31	=31	=31	=31	=31
8f#\]	.	16b-\LK]	.	16cc#\LK]	.	16ee\LK]	.
.	.	8b-\	.	8cc#\	.	8een\	.
4F#\	.	.	.	.	.	.	.
.	.	8f#\	.	[16bn\Jk	.	[16ddn\Jk	.
.	.	.	.	16b\LK]	.	16dd\LK]	.
.	.	8f#\	.	8b\	.	8dd\	.
([8G\	.	.	.	.	.	.	.
.	.	[16en\Jk	.	[16b\Jk	.	[16cc#\Jk	.
=32	=32	=32	=32	=32	=32	=32	=32
16G\LL]	.	16e\LL]	.	16b\LK]	.	16cc#\LK]	.
16F#\	.	16f#\	.	8bn\	.	8cc#\	.
16En\	.	16g\	.	.	.	.	.
16G\JJ	.	16en\JJ	.	16b\Jk	.	[16cc#\Jk	.
16F#\LL	.	16f#\LK	.	16a#/LL	.	16cc##\LL	.
16E\	.	8f#\	.	16a#/JJ	.	16cc#\JJ	.
16Dn\	.	.	.	16b\LL	.	([8ddn\	.
16C#\JJ	.	[16f#\Jk	.	[16b\JJ	.	.	.
=33	=33	=33	=33	=33	=33	=33	=33
4BBn/)	.	16f#\LK]	.	16b/LK]	.	8dd\L]	.
.	.	8f#\	.	8dn/ 8f#/	.	.	.
.	.	.	.	.	.	16bn\L	.
.	.	8Bn\	.	[16d/Jk [16f#/	.	16cc#\JJ	.
4r	.	.	.	16d/LK] 16f#/]	.	8ddn\)	.
.	.	8B\	.	8d/ 8f#/	.	.	.
.	.	.	.	.	.	([8dd\	.
.	.	[16An\Jk	.	[16d/Jk [16fn/	.	.	.
=34	=34	=34	=34	=34	=34	=34	=34
2r	.	16A/LK]	.	16d/LK] 16f/]	.	8dd\L]	.
.	.	8An/	.	8dn/ 8f/	.	.	.
.	.	.	.	.	.	16bn\L	.
.	.	[16A/Jk	.	[16d/Jk [16f/	.	16cc\JJ	.
.	.	16A/LK]	.	16d/LK] 16f/]	.	8ddn\)	.
.	.	8A/	.	8d/ 8f/	.	.	.
.	.	.	.	.	.	[8ff\	.
.	.	[16A/Jk	.	[16cn/Jk [16e-/	.	.	.
=35	=35	=35	=35	=35	=35	=35	=35
4r	.	16A/LK]	.	16c/LK] 16e-/]	.	8ff\]	.
.	.	8An/	.	8c/ 8e-/	.	.	.
.	.	.	.	.	.	4f/	.
.	.	8B-/	.	[16d-/Jk	.	.	.
8r	.	.	.	16d-/LK]	.	.	.
.	.	8B-/	.	8d-/	.	.	.
([8E-\	.	.	.	.	.	([8g-/	.
.	.	[16B-/Jk	.	[16c/Jk	.	.	.
=36	=36	=36	=36	=36	=36	=36	=36
16E-\LL]	.	16B-/LK]	.	16c/LK]	.	16g-/LL]	.
16F\	.	8B-/	.	8c/	.	16f/	.
16G-\	.	.	.	.	.	16e-/	.
16E-\JJ)	.	(16B-/Jk	.	8c/	.	16g-/JJ)	.
8F\	.	16An/LL)	.	.	.	(16f/LL	.
.	.	(16A/	.	(16c/L	.	16e-/	.
([8FF/	.	16E-/)	.	16An/)	.	16d-/	.
.	.	(16E-/JJ	.	(16A/JJ	.	16c/JJ)	.
=37	=37	=37	=37	=37	=37	=37	=37
8FF/L]	.	16Dn/LL)	.	16A-/LK)	.	16c-/LK	.
.	.	(16D/	.	8A-/	.	8c-/	.
16DDn/L	.	16F/	.	.	.	.	.
16EE-/JJ	.	16E-/JJ	.	[16A-/Jk	.	[16c-/Jk	.
8FF/)	.	16D/LK)	.	16A-/LK]	.	16c-/LK]	.
.	.	8D/	.	8A-/	.	8c-/	.
([8FF/	.	.	.	.	.	.	.
.	.	[16D/Jk	.	[16A-/Jk	.	[16c-/Jk	.
=38	=38	=38	=38	=38	=38	=38	=38
8FF/L]	.	16D/LL]	.	16A-/LK]	.	16c-/LK]	.
.	.	(16Dn/	.	8A-/	.	8c-/	.
16DDn/L	.	16F/	.	.	.	.	.
16EE-/JJ	.	16E-/JJ	.	[16A-/Jk	.	[16c-/Jk	.
8FF/)	.	16D/LK)	.	16A-/LK]	.	16c-/LL]	.
.	.	8D/ 8c-/	.	8A-/	.	16c-/JJ	.
16DD/LL	.	.	.	.	.	(16dn/LL	.
16EE-/JJ	.	[16D/Jk [16c-/	.	[16A-/Jk	.	16e-/JJ	.
=39	=39	=39	=39	=39	=39	=39	=39
24FF/	.	24D/LL] 24Bn/	.	24A-/LL]	.	24f/LL)	.
(24DDn/LL	<	(24Dn/	.	(24dn/	<	(24dn/	<
24EE-/JJ	.	24E-/JJ	.	24e-/JJ	.	24e-/JJ	.
24FF/LL)	.	24F/LL)	.	24f/LL)	.	24f/LL)	.
(24FF/	.	(24F/	.	(24f/	.	(24f/	.
24GG-/JJ	.	24G-/JJ	.	24g-/JJ	.	24g-/JJ	.
24AA-/LL)	.	24A-/LL)	.	24a-/LL)	.	24a-/LL)	.
(24AA-/	.	(24A-/	.	(24a-/	.	(24a-/	.
24BB-/JJ	.	24B-/JJ	.	24b-/JJ	.	24b-/JJ	.
8C-/)	.	8c-\)	.	8cc-\)	.	[8cc-\)	.
=40	=40	=40	=40	=40	=40	=40	=40
4r	.	8r	.	2r	.	(2cc-\_	p
.	.	([4f\	p	.	.	.	.
8r	.	.	.	.	.	.	.
8AA-/	.	24f\LL]	.	.	.	.	.
.	.	24g-\	.	.	.	.	.
.	.	24a-\JJ)	.	.	.	.	.
=41	=41	=41	=41	=41	=41	=41	=41
*	*	*	*	*	*	*MM84	*MM84
8DD-/	.	([8f\L	.	8r	.	24cc\LL	.
.	.	.	.	.	.	24dd-\	.
.	.	.	.	.	.	24ee-\J)	.
8r	.	24f\L]	.	8a-/L	.	([8cc-\J	.
.	.	24e-\	.	.	.	.	.
.	.	24d-\JJ)	.	.	.	.	.
8r	.	([8f\L	.	8d-/J	.	24cc-\LL]	.
.	.	.	.	.	.	24b-\	.
.	.	.	.	.	.	24a-\J)	.
8D-\	.	24f\L]	.	8r	.	([8cc-\J	.
.	.	24g-\	.	.	.	.	.
.	.	24a-\JJ)	.	.	.	.	.
=42	=42	=42	=42	=42	=42	=42	=42
8GG-/	.	([8f-\L	.	8r	.	24cc-\LL]	.
.	.	.	.	.	.	24dd-\	.
.	.	.	.	.	.	24ee-\J)	.
8r	.	24f\L	.	8d-/L	.	([8b-\J	.
.	.	24e-\	.	.	.	.	.
.	.	24d-\JJ)	.	.	.	.	.
8r	.	([8f-\L	.	8g-/J	.	24b-/LL]	.
.	.	.	.	.	.	24a-/	.
.	.	.	.	.	.	24g-/J)	.
8G-\	.	24f-\L]	.	8r	.	([8b-/J	.
.	.	24g-\	.	.	.	.	.
.	.	24a-\JJ)	.	.	.	.	.
=43	=43	=43	=43	=43	=43	=43	=43
8BBn/	.	([8e-\L	.	8r	.	24b-\LL]	.
.	.	.	.	.	.	24cc-\	.
.	.	.	.	.	.	24dd-\J)	.
8r	.	24e-\L]	.	8g-/L	.	([8b-\J	.
.	.	24d-\	.	.	.	.	.
.	.	24c-\JJ)	.	.	.	.	.
8r	.	([8e-\L	.	8c-/J	.	24b-/LL]	.
.	.	.	.	.	.	24a-/	.
.	.	.	.	.	.	24g-/J)	.
8G-\	.	24e-\L]	.	8r	.	([8b-/J	.
.	.	24fn\	.	.	.	.	.
.	.	24g-\JJ)	.	.	.	.	.
=44	=44	=44	=44	=44	=44	=44	=44
8C/	<	([8e-\L	.	8r	.	24b-/LL]	.
.	.	.	.	.	.	24a-/	.
.	.	.	.	.	.	24g-/J)	.
8r	.	24e-\L]	.	8e-/	<	([8b-/J	.
.	.	24f\	.	.	.	.	.
.	.	24g-\JJ)	.	.	.	.	.
8E-\	.	([8cn\L	.	8r	.	24b-/LL]	.
.	.	.	.	.	.	24a-/	.
.	.	.	.	.	.	24g-/J)	.
8r	.	24c\L]	.	8g-/	.	([8b-/J	.
.	.	24f\	.	.	.	.	.
.	.	24g-\JJ)	.	.	.	.	.
=45	=45	=45	=45	=45	=45	=45	=45
8AA-/	.	(12c\L	.	8r	.	24b-\LL]	.
.	.	.	.	.	.	24a-\	.
.	.	24e-\Jk	.	.	.	24g-\	.
8r	.	24g-\LL	.	8e-/ 8cc/	.	24ee-\	.
.	.	24f\	.	.	.	24dd-\	.
.	.	24e-\JJ)	.	.	.	24cc\JJ)	.
8A-\	.	(24b-\LL	.	4r	.	(24gg-\LL	.
.	.	24a-\	.	.	.	24ff\	.
.	.	24g-\	.	.	.	24ee-\	.
8r	.	24f\	.	.	.	24dd-\	.
.	.	24e-\	.	.	.	24cc\	.
.	.	24d-\JJ)	.	.	.	24b-\JJ)	.
=46	=46	=46	=46	=46	=46	=46	=46
2r	.	(24c/LL	.	2r	.	(24a-/LL	.
.	.	24B-/	.	.	.	24g-/	.
.	.	24A-/	.	.	.	24f/	.
.	.	24G-/	.	.	.	24e-/	.
.	.	24F/	.	.	.	24d-/	.
.	.	24E-/JJ)	.	.	.	24c/JJ)	.
.	.	(24D-/LL	.	.	.	(24B-/LL	.
.	.	24C/	.	.	.	24A-/	.
.	.	24E-/	.	.	.	24c/	.
.	.	24F/	.	.	.	24d-/	.
.	.	24G-/	.	.	.	24e-/	.
.	.	24A-/JJ)	.	.	.	24f/JJ	.
=47	=47	=47	=47	=47	=47	=47	=47
2r	.	24B-\LL	.	4r	.	24g-\LL	.
.	.	24c\	.	.	.	24a-\	.
.	.	24d-\JJ	.	.	.	24b-\	.
.	.	24e-\LL	.	.	.	24cc\)	.
.	.	24f\	.	.	.	(24dd-\	.
.	.	24a-\JJ	.	.	.	24ee-\JJ	.
.	.	4dd-\	.	24r	.	[4ff\)	.
.	.	.	.	(24a-\LL	<	.	.
.	.	.	.	24cc\JJ	.	.	.
.	.	.	.	[8dd-\)	.	.	.
=48	=48	=48	=48	=48	=48	=48	=48
4r	.	2r	.	8dd-\]	>	(4.ff\_	.
.	.	.	.	4cc\	.	.	.
8r	.	.	.	.	.	.	.
8G\	p	.	.	([8bn\	.	24ff\LL]	.
.	.	.	.	.	.	24gg\	.
.	.	.	.	.	.	24aan\JJ)	.
=49	=49	=49	=49	=49	=49	=49	=49
8GG/	.	8r	.	24b\LL]	.	([8ff\L	.
.	.	.	.	24cc\	.	.	.
.	.	.	.	24ddn\J)	.	.	.
8r	.	8dn/L	.	([8bn\J	.	24ff\L]	.
.	.	.	.	.	.	24een\	.
.	.	.	.	.	.	24ddn\JJ)	.
8r	.	8G/J	.	24b/LL]	.	([8ff\L	.
.	.	.	.	24an/	.	.	.
.	.	.	.	24g/J)	.	.	.
8G\	.	8r	.	([8b/J	.	24ff\L]	.
.	.	.	.	.	.	24gg\	.
.	.	.	.	.	.	24aan\JJ)	.
=50	=50	=50	=50	=50	=50	=50	=50
8C/	.	8r	.	24b\LL]	.	([8een\L	.
.	.	.	.	24cc\	.	.	.
.	.	.	.	24ddn\J)	.	.	.
8r	.	8g\L	.	([8b-\J	.	24ee\L]	.
.	.	.	.	.	.	24ddn\	.
.	.	.	.	.	.	24cc\JJ)	.
8r	.	8c\J	.	24b-/LL]	.	([8ee\L	.
.	.	.	.	24an/	.	.	.
.	.	.	.	24g/J)	.	.	.
8C/	.	8r	.	([8b-/J	.	24ee\L]	.
.	.	.	.	.	.	24ff\	.
.	.	.	.	.	.	24gg\JJ)	.
=51	=51	=51	=51	=51	=51	=51	=51
8FF/	.	8r	.	24b-\LL]	.	([8ee-\L	.
.	.	.	.	24cc\	.	.	.
.	.	.	.	24ddn\J)	.	.	.
8r	.	8c/L	.	([8an\J	.	24ee-\L]	.
.	.	.	.	.	.	24ddn\	.
.	.	.	.	.	.	24cc\JJ)	.
8r	.	8F/J	.	24a/LL]	.	([8ee-\L	.
.	.	.	.	24g/	.	.	.
.	.	.	.	24f/J)	.	.	.
8F\	<	8r	.	([8a/J	.	24ee-\L]	.
.	.	.	.	.	.	24ff\	.
.	.	.	.	.	.	24gg\JJ)	.
=52	=52	=52	=52	=52	=52	=52	=52
8BB-/	.	8r	.	24a/LL]	.	([8ddn\L	.
.	.	.	.	24g/	.	.	.
.	.	.	.	24f/J)	.	.	.
8Bn\	.	8f\	.	([8an/J	.	24dd\L]	.
.	.	.	.	.	.	24een\	.
.	.	.	.	.	.	24ff\JJ)	.
8BBn/	.	8F/	.	24a/LL]	.	([8dd\L	.
.	.	.	.	24g/	.	.	.
.	.	.	.	24f/J)	.	.	.
8GG/	.	8G\ 8dn\ 8bn\	.	8a/J	.	24dd\L]	.
.	.	.	.	.	.	24ee\	.
.	.	.	.	.	.	24ff\JJ)	.
=53	=53	=53	=53	=53	=53	=53	=53
8C/	.	8G\ 8en\ 8cc\	.	(24g/LL	.	(24een\LL	.
.	.	.	.	24f/	.	24ddn\	.
.	.	.	.	24en/	.	24cc\	.
8r	.	8r	.	24b-/	.	24gg\	.
.	.	.	.	24an/	.	24ff\	.
.	.	.	.	24g/JJ)	.	24ee\JJ)	.
4r	.	4r	.	(24ddn/LL	.	(24bb-\LL	.
.	.	.	.	24cc/	.	24aan\	.
.	.	.	.	24b-/	.	24gg\	.
.	.	.	.	24a/	.	24ff\	.
.	.	.	.	24g/	.	24ee\	.
.	.	.	.	24f/JJ)	.	24dd\JJ)	.
=54	=54	=54	=54	=54	=54	=54	=54
2r	.	2r	.	(24en/LL	.	(24cc/LL	.
.	.	.	.	24g/	.	24b-/	.
.	.	.	.	24f/	.	24an/	.
.	.	.	.	24e/	.	24g/	.
.	.	.	.	24dn/	.	24f/	.
.	.	.	.	24c/JJ)	.	24en/JJ)	.
.	.	.	.	(24B-/LL	.	(24dn/LL	.
.	.	.	.	24An/	.	24c/	.
.	.	.	.	24G/	.	24e/	.
.	.	.	.	24A/	.	24f/	.
.	.	.	.	24B-/	.	24g/	.
.	.	.	.	24c/JJ	.	24a/JJ	.
=55	=55	=55	=55	=55	=55	=55	=55
4r	.	4r	.	24dn/LL	.	24b-\LL	.
.	.	.	.	24en/	.	24cc\	.
.	.	.	.	24f/	.	24ddn\	.
.	.	.	.	24g/)	.	24een\)	.
.	.	.	.	(24an/	.	(24ff\	.
.	.	.	.	24cc/JJ	.	24gg\JJ	.
*clefC4	*clefC4	*	*	*	*	*	*
24r	.	24r	.	8ff\)	.	8aan\)	.
*	*	*clefG2	*clefG2	*	*	*	*
(24f\LL	.	(24an\LL	.	.	.	.	.
24g\JJ	.	24cc\JJ	.	.	.	.	.
8an\)	.	8ff\)	.	24r	.	24r	.
.	.	.	.	(24An/LL	.	(24f/LL	.
.	.	.	.	24c/JJ	.	24g/JJ	.
=56	=56	=56	=56	=56	=56	=56	=56
*clefF4	*clefF4	*clefC3	*clefC3	*	*	*	*
24r	.	24r	.	8f/)	.	8an/)	.
(24F\LL	.	(24An/LL	.	.	.	.	.
24G\JJ	.	24c/JJ	.	.	.	.	.
4An\)	.	4f\)	.	8r	.	8r	.
.	.	.	.	4r	.	4r	.
[8A\	.	[8f\	<	.	.	.	.
=57	=57	=57	=57	=57	=57	=57	=57
8A\]	<	8f\]	.	8r	.	4r	.
4A-\	>	4f\	>	4d-/	.	.	.
.	.	.	.	.	.	8r	.
8FF^/	p	(24f\LL	.	8A-^/ 8a-^/	p	(16dd-^\LL	p
.	.	24g\	.	.	.	.	.
.	.	.	.	.	.	16cc\JJ)	.
.	.	24a-\JJ)	.	.	.	.	.
=58	=58	=58	=58	=58	=58	=58	=58
8GG/L	.	([8f\L	.	8G'/L 8dn'/	.	(16cc\LL	.
.	.	.	.	.	.	16bn\JJ)	.
8GG/	.	24f\L]	.	8G'/ 8d'/	.	(16b/LL	.
.	.	24e-\	.	.	.	.	.
.	.	.	.	.	.	16a-/JJ)	.
.	.	24dn\JJ)	.	.	.	.	.
8GG/J	.	([8f\L	.	8G'/J 8d'/	.	(16a-/LL	.
.	.	.	.	.	.	16g/JJ)	.
8FF/	.	24f\L]	.	8A-^/ 8a-^/	.	(16dd-^\LL	.
.	.	24g\	.	.	.	.	.
.	.	.	.	.	.	16cc\JJ)	.
.	.	24a-\JJ)	.	.	.	.	.
=59	=59	=59	=59	=59	=59	=59	=59
8GG/L	.	([8f\L	.	8G'/L 8dn'/	.	(16cc\LL	.
.	.	.	.	.	.	16bn\JJ)	.
8GG/	.	24f\L]	.	8G'/ 8d'/	.	(16b/LL	.
.	.	24e-\	.	.	.	.	.
.	.	.	.	.	.	16a-/JJ)	.
.	.	24dn\JJ)	.	.	.	.	.
8GG/J	.	8f\	.	8G'/J 8d'/	.	(16a-/LL	.
.	.	.	.	.	.	16g/JJ)	.
8CC/	.	([8a-\	.	8A-'/ 8a-'/	.	(16ff\LL	.
.	.	.	.	.	.	16ee-\JJ)	.
=60	=60	=60	=60	=60	=60	=60	=60
8DDn/L	.	16a-\LL]	.	8A-'/L 8f'/	.	(16ee-\LL	.
.	.	16A-\JJ)	.	.	.	16dd-\JJ)	.
8EE-/	.	([8A-/L	.	8e-'/	.	(16dd-\LL	.
.	.	.	.	.	.	16cc\JJ)	.
8FF/J	.	16A-/L]	.	8dn'/J	.	(16cc\LL	.
.	.	16B-/JJ)	.	.	.	16b-\JJ)	.
8AA-/	.	([8B-/	.	8B-'/ 8d'/	.	(16b-\LL	.
.	.	.	.	.	.	16cc\JJ)	.
=61	=61	=61	=61	=61	=61	=61	=61
8GG/L	.	8B-\L]	.	8B-'/L 8e-'/	.	(16cc\LL	.
.	.	.	.	.	.	16b-\JJ)	.
8FF/	.	8a-\	.	8B-'/ 8dn'/	.	(16b-\LL	.
.	.	.	.	.	.	16cc\JJ)	.
8EE-/J	.	8g\J)	.	8B-'/J 8e-'/	.	(16cc\LL	.
.	.	.	.	.	.	16b-\JJ)	.
8FF/	.	(24f\LL	.	8A-^/ 8a-^/	.	(16dd-^\LL	.
.	.	24g\	.	.	.	.	.
.	.	.	.	.	.	16cc\JJ)	.
.	.	24a-\JJ)	.	.	.	.	.
=62	=62	=62	=62	=62	=62	=62	=62
8GG/L	.	([8f\L	.	8G'/L 8dn'/	.	(16cc\LL	.
.	.	.	.	.	.	16bn\JJ)	.
8GG/	.	24f\L]	.	8G'/ 8d'/	.	(16b/LL	.
.	.	24e-\	.	.	.	.	.
.	.	.	.	.	.	16a-/JJ)	.
.	.	24dn\JJ)	.	.	.	.	.
8GG/J	.	([8f\L	.	8G'/J 8d'/	.	(16a-/LL	.
.	.	.	.	.	.	16g/JJ)	.
8FF/	.	24f\L]	.	8A-^/ 8a-^/	.	(16dd-^\LL	.
.	.	24g\	.	.	.	.	.
.	.	.	.	.	.	16cc\JJ)	.
.	.	24a-\JJ)	.	.	.	.	.
=63	=63	=63	=63	=63	=63	=63	=63
8GG/L	.	([8f\L	.	8G'/L 8dn'/	.	(16cc\LL	.
.	.	.	.	.	.	16bn\JJ)	.
8GG/	.	24f\L]	.	8G'/ 8d'/	.	(16b/LL	.
.	.	24e-\	.	.	.	.	.
.	.	.	.	.	.	16a-/JJ)	.
.	.	24dn\JJ	.	.	.	.	.
8GG/J	.	8f\)	.	8G'/J 8d'/	.	(16a-/LL	.
.	.	.	.	.	.	16g/JJ)	.
8EEn/	.	8d-\	.	8g/	.	(16b-/LL	.
.	.	.	.	.	.	16an/JJ)	.
=64	=64	=64	=64	=64	=64	=64	=64
8FF/L	.	8c\L	.	8f/L	.	(16an/LL	.
.	.	.	.	.	.	16a-/JJ)	.
8GG/	.	8d-\	.	8B-/ 8en/	.	(16a-/LL	.
.	.	.	.	.	.	16g/JJ)	.
8AA-/	.	8c\	.	8A-/ 8f/	.	(16g/LL	.
.	.	.	.	.	.	16f/JJ)	.
8BB-/J	.	8d-\J	.	8G/J	.	(16f/LL	.
.	.	.	.	.	.	16d-/JJ)	.
=65	=65	=65	=65	=65	=65	=65	=65
8C/L	.	8F/L	.	8A-/L	.	(16d-/LL	.
.	.	.	.	.	.	16c/JJ)	.
8C/	.	8G/	.	8B-/	.	(16c/LL	.
.	.	.	.	.	.	16en/JJ)	.
8FF/J	.	8c/J	.	8A-/J	.	(16e/LL	.
.	.	.	.	.	.	16f/JJ)	.
8B-\	.	8d-\	.	8g/	.	(16ff\LL	.
.	.	.	.	.	.	16dd-\JJ)	.
=66	=66	=66	=66	=66	=66	=66	=66
8c\L	.	8f\L	.	8a-/L	.	(16dd-\LL	.
.	.	.	.	.	.	16cc\JJ)	.
8C\	.	8g\	.	8b-/	.	(16cc\LL	.
.	.	.	.	.	.	16een\JJ)	.
8FF\J	.	8f\J	.	8a-/J	.	(16ee\LL	.
.	.	.	.	.	.	16ff\JJ)	.
8B-\	p	8d-\	p	8g/	p	(16fff\LL	p
.	.	.	.	.	.	16ddd-\JJ)	.
=67	=67	=67	=67	=67	=67	=67	=67
8r	.	8r	.	8r	.	(8ddd-\	>
8c\	.	8f\	.	(16a-/LL	.	4ccc\	.
.	.	.	.	16f/JJ)	>	.	.
8r	>	8r	>	(8f/L	.	.	.
8C/	.	(16b-\LL	.	8g/J)	.	8een\)	.
.	.	16d-\JJ)	.	.	.	.	.
=68	=68	=68	=68	=68	=68	=68	=68
8r	.	(8d-\L	p	8r	.	8r	.
*^	*	*	*	*	*	*	*
4.FF/	16FF/LL	.	8c\	.	(8cc\L	p	(8.aa-\L	p
.	16FF/	p	.	.	.	.	.	.
.	16FF/	.	8Bn\	.	8bn\	.	.	.
.	16FF/	.	.	.	.	.	16gg\L	.
.	16FF/	.	8B-\J	.	8b-\J	.	16ddn\	.
.	16FF/JJ	.	.	.	.	.	16een\JJ	.
=69	=69	=69	=69	=69	=69	=69	=69	=69
2FF/	16FF/LL	.	8An/L	.	8an/L	.	16cc\LL	.
.	16FF/	.	.	.	.	.	16ff\JJ)	.
.	16FF/	.	8A-/	.	8a-/	.	(16cc\LL	.
.	16FF/	.	.	.	.	.	16dd-\	.
.	16FF/	.	8G/J)	.	8g/J)	.	16b-\	.
.	16FF/	.	.	.	.	.	16ee-\JJ)	.
.	16FF/	.	[8F/	.	[8f/	.	(16a-\LL	.
.	16FF/JJ	.	.	.	.	.	16dd-\JJ	.
=70	=70	=70	=70	=70	=70	=70	=70	=70
8FF/L	16FF/LL	.	8F/]	.	8f/]	.	16ff\LL	.
.	16FF/	.	.	.	.	.	16dd-\JJ)	.
8AA-/J	16AA-/	.	(16E-/LL	.	(16e-/LL	.	4cc\	.
.	16AA-/	.	16A-/JJ	.	16a-/JJ	.	.	.
8AA-/L	16AA-/	.	16c/LL	.	16cc/LL	.	.	.
.	16AA-/	.	16A-/J)	.	16a-/J)	.	.	.
8BB-/J	16BB-/	.	[8G/J	.	[8g/J	.	(16dd-\LL	.
.	16BB-/JJ	.	.	.	.	.	16cc\JJ	.
*v	*v	*	*	*	*	*	*	*
=71	=71	=71	=71	=71	=71	=71	=71
16BB-/LL	.	8G/]	.	(16g/LL]	.	16b-/LL	.
16BB-/JJ	.	.	.	16f/J	.	16a-/JJ)	.
(16C/LL	.	4c\	.	8en/J)	.	(8.g\L	.
16BB-/	.	.	.	.	.	.	.
16AA-/	.	.	.	([4b-\	.	.	.
16GG/JJ)	.	.	.	.	.	16cc\L)	.
16FF/LL	.	([8en\	.	.	.	(16cc\	.
16FF/JJ	.	.	.	.	.	16gg\JJ)	.
=72	=72	=72	=72	=72	=72	=72	=72
*^	*	*	*	*	*	*	*
2FF/	16FF/LL	.	16e\LL]	.	16b-\LL]	.	(16gg\LL	.
.	16FF/	.	16g\JJ)	.	16een\JJ)	.	16ccc\JJ)	.
.	16FF/	.	(8.a-\L	.	(8.aa-\L	.	(8ccc\L	.
.	16FF/	.	.	.	.	.	.	.
.	16FF/	.	.	.	.	.	8bbn\	.
.	16FF/	.	16g\L	.	16gg\L	.	.	.
.	16FF/	.	16dn\	.	16ddn\	.	8bb-\J	.
.	16FF/JJ	.	16en\JJ	.	16ee\JJ	.	.	.
=73	=73	=73	=73	=73	=73	=73	=73	=73
2FF/	16FF/LL	.	16c\LL	.	16cc\LL	.	8aan\L	.
.	16FF/	.	16f\JJ)	.	16ff\JJ)	.	.	.
.	16FF/	.	(16c\LL	.	(16cc\LL	.	8aa-\	.
.	16FF/	.	16d-\	.	16dd-\	.	.	.
.	16FF/	.	16B-\	.	16b-\	.	8gg\J)	.
.	16FF/	.	16e-\JJ)	.	16ee-\JJ)	.	.	.
.	16FF/	.	(16A-/LL	.	(16a-\LL	.	[8ff\	.
.	16FF/JJ	.	16d-/JJ	.	16dd-\JJ	.	.	.
=74	=74	=74	=74	=74	=74	=74	=74	=74
8FF/L	16FF/LL	.	16f\LL	.	16ff\LL	.	8ff\]	.
.	16FF/	.	16d-\JJ)	.	16dd-\JJ)	.	.	.
8AA-/J	16AA-/	.	4c\	.	4cc\	.	(16ee-\LL	.
.	16AA-/	.	.	.	.	.	16aa-\JJ	.
8AA-/L	16AA-/	.	.	.	.	.	16ccc\LL	.
.	16AA-/	.	.	.	.	.	16aa-\J)	.
8D-/J	16D-\	.	(16A-/LL	.	(16a-\LL	.	[8ff\J	.
.	16D-\JJ	.	16d-/JJ	.	16dd-\JJ	.	.	.
=75	=75	=75	=75	=75	=75	=75	=75	=75
8D-\L	16D-\LL	.	16f\LL	.	16ff\LL	.	8ff\L]	.
.	16D-\	.	16d-\JJ)	.	16dd-\JJ)	.	.	.
8A-\J	16A-\	.	4c\	.	4cc\	.	(16ee-\L	.
.	16A-\	.	.	.	.	.	16gg\JJ	.
8A-\L	16A-\	.	.	.	.	.	16aa-\LL	.
.	16A-\	.	.	.	.	.	16ee-\J)	.
8AA-\J	16AA-/	.	(16d-\LL	.	(16dd-\LL	.	[8gg\J	.
.	16AA-/JJ	.	16c\JJ	.	16cc\JJ	.	.	.
=76	=76	=76	=76	=76	=76	=76	=76	=76
4C/	16C/LL	.	16B-\LL	.	16b-/LL	.	(16gg\LL]	.
.	16C/	.	16A-\	.	16a-/J	.	16ff\	.
.	16C/	.	16G\	.	8g/J)	.	16ee-\	.
.	16C/JJ	.	16f\JJ)	.	.	.	16dd-\JJ)	.
*v	*v	*	*	*	*	*	*	*
16C/LL	.	4en\	.	(16G/LL	.	(16cc/LL	.
16C/	.	.	.	16dn/J	.	16b-/	.
(16C/	.	.	.	8c/J)	.	16a-/	.
16BB-/JJ	.	.	.	.	.	16g/JJ)	.
=77	=77	=77	=77	=77	=77	=77	=77
16AA-/LL	p	8c\	p	8c/	.	8f/	p
16GG/J	.	.	.	.	.	.	.
8FF/J)	.	8r	.	8r	.	8r	.
16r	.	8A-/	.	8c/	.	8f/	.
(16GG/LK	.	.	.	.	.	.	.
8FF/J)	.	8r	.	8r	.	8r	.
=78	=78	=78	=78	=78	=78	=78	=78
8r	.	8A-/	.	8c/	.	(8f/L	.
4FF/	.	8r	.	8r	.	16a-/L	.
.	.	.	.	.	.	16cc/JJ	.
.	.	4r	.	16r	.	16ff\LL	.
.	.	.	.	(16f/LL	.	16aa-\J	.
8r	.	.	.	16e-/	.	[8ccc\J)	.
.	.	.	.	16g/JJ	.	.	.
=79	=79	=79	=79	=79	=79	=79	=79
4r	.	16r	.	16cc\LL	.	16ccc\LL]	.
.	.	(16c\LL	.	16ee-\JJ)	.	(16gg\J	.
.	.	16B-\	.	4dd-\	.	[8bb-\J)	.
.	.	16d-\JJ	.	.	.	.	.
8r	.	16g-\LL	<	.	.	16bb-\LL]	.
.	.	16a-\JJ)	.	.	.	(16dd-\	<
8BB-'/	.	([8b-\	>	8dd-'\	.	16gg-\	>
.	.	.	.	.	.	16ff\JJ)	.
=80	=80	=80	=80	=80	=80	=80	=80
8C'/	.	8b-\L]	.	8g'/	.	(16ff\LL	.
.	.	.	.	.	.	16een\)	.
8r	.	16g\L	.	8r	.	(16ee\	.
.	.	16a-\JJ	.	.	.	16dd-\JJ)	.
8r	.	8b-\)	.	8r	.	(16dd-\LL	.
.	.	.	.	.	.	16cc\)	.
8D-'\	.	([8d-\	.	8f'/	.	(16cc\	.
.	.	.	.	.	.	16b-\JJ)	.
=81	=81	=81	=81	=81	=81	=81	=81
8F'\	.	8d-\L]	.	8f'/	.	(16b-/LL	.
.	.	.	.	.	.	16a-/)	.
8r	.	16c\L	.	8r	.	(16a-/	.
.	.	16B-\JJ	.	.	.	16g/JJ)	.
8r	.	8A-/)	.	8r	.	(16g/LL	.
.	.	.	.	.	.	16f/JJ)	.
(16G-\LL	.	([8b-\	.	8d-'/	.	8b-'\	.
16F\JJ)	.	.	.	.	.	.	.
=82	=82	=82	=82	=82	=82	=82	=82
(16F\LL	.	8b-\L]	.	8g'/	.	8cc'\	.
16En\JJ)	.	.	.	.	.	.	.
(16E\LL	.	16g\L	.	8r	.	8r	.
16D-\JJ)	.	16a-\JJ	.	.	.	.	.
(16D-/LL	.	(8b-\)	.	8r	.	8r	.
16C/JJ)	.	.	.	.	.	.	.
(16C/LL	.	([8d-\)	.	8f'/	.	8dd-'\	.
16BB-/JJ)	.	.	.	.	.	.	.
=83	=83	=83	=83	=83	=83	=83	=83
*MM126	*MM126	*	*	*	*	*	*
(16BB-/LL	.	8d-\L]	.	8f'/	.	8ff'\	.
16AA-/JJ)	.	.	.	.	.	.	.
(16AA-/LL	.	16c\L	.	8r	.	8r	.
16GG/JJ)	.	16B-\JJ	.	.	.	.	.
(16GG/LL	.	8A-/)	.	8r	.	8r	.
16FF/JJ)	.	.	.	.	.	.	.
(16c\LL	.	([8dd-\	.	8f'/	.	8dd-'\	.
16B-\JJ)	.	.	.	.	.	.	.
=84	=84	=84	=84	=84	=84	=84	=84
(16B-\LL	.	8dd-\L]	.	8f'/	.	8ff'\	.
16A-\JJ)	.	.	.	.	.	.	.
(16A-\LL	.	16cc\L	.	8r	.	8r	.
16G\JJ)	.	16b-\JJ	.	.	.	.	.
(16G\LL	.	8a-\)	.	8r	.	8r	.
16F\JJ)	.	.	.	.	.	.	.
8r	.	([8dd-\	.	(16cc\LL	.	8ddd-'\	.
.	.	.	.	16b-\JJ)	.	.	.
=85	=85	=85	=85	=85	=85	=85	=85
4r	.	8dd-\L]	.	(16b-/LL	.	8fff'\	.
.	.	.	.	16f/JJ)	.	.	.
.	.	16cc\L	.	(16f/LL	.	8r	.
.	.	16b-\JJ)	.	16d-/JJ)	.	.	.
8r	.	(8b-\L	.	(16d-/LL	.	8bb-'\	.
.	.	.	.	16B-/JJ)	.	.	.
(16c\LL	.	([8d-\J)	.	8r	.	8r	.
16B-\JJ)	.	.	.	.	.	.	.
=86	=86	=86	=86	=86	=86	=86	=86
(16B-\LL	.	8d-\L]	.	8f'/	.	8fff'\	.
16F\JJ)	.	.	.	.	.	.	.
(16F\LL	.	16c\L	.	8r	.	8r	.
16D-\JJ)	.	16B-\JJ)	.	.	.	.	.
(16D-/LL	.	(8B-/L	.	8b-'\	.	8ff'\	.
16BB-/JJ)	.	.	.	.	.	.	.
(16BB-/LL	.	8D-/J)	.	8r	.	8r	.
16FF/JJ)	.	.	.	.	.	.	.
=87	=87	=87	=87	=87	=87	=87	=87
[2FF/	.	2C/	.	8f'\ 8ff'\	.	8fff'\	.
.	.	.	.	8r	.	8r	.
.	.	.	.	4r	.	4r	.
=88	=88	=88	=88	=88	=88	=88	=88
8FF/]	.	8C/ 8An/	.	8c/ 8f/ 8an/	.	8c/ 8an/ 8ff/	.
8r	.	8r	.	8r	.	8r	.
8r	.	8r	.	8r	.	8r	.
=89	=89	=89	=89	=89	=89	=89	=89
*k[b-]	*k[b-]	*k[b-]	*k[b-]	*k[b-]	*k[b-]	*k[b-]	*k[b-]
*M3/4	*M3/4	*M3/4	*M3/4	*M3/4	*M3/4	*M3/4	*M3/4
4AA/	p	4r	.	8a/	p	(4cc\	p
.	.	.	.	8a\	.	.	.
=90!|:	=90!|:	=90!|:	=90!|:	=90!|:	=90!|:	=90!|:	=90!|:
*>C	*>C	*>C	*>C	*>C	*>C	*>C	*>C
*	*	*	*	*^	*	*	*
4FF/	.	4A\ 4f\	p	(8a/L	8a\L	.	4ff\	.
.	.	.	.	8a/	8a\	.	.	.
4r	.	4r	.	8a/	8a\	.	4a/	.
.	.	.	.	8a/	8a\	.	.	.
4DD/	.	4F/ 4A/	.	8a/)	8a\	.	4dd\	.
.	.	.	.	8a/J	8a\J	.	.	.
=91	=91	=91	=91	=91	=91	=91	=91	=91
4FF/	.	4A\ 4f\	.	(8a/L	8a\L	.	4cc\	.
.	.	.	.	8a/	8a\	.	.	.
4r	.	4r	.	8a/	8a\	.	4a/)	.
.	.	.	.	8a/	8a\	.	.	.
4AA/	.	4r	.	8a/)	8a\	.	(4cc\	.
.	.	.	.	8a/J	8a\J	.	.	.
=92	=92	=92	=92	=92	=92	=92	=92	=92
4FF/	.	4A\ 4f\	.	(8a/L	8a\L	.	4ff\	.
.	.	.	.	8a/	8a\	.	.	.
4r	.	4r	.	8a/	8a\	.	4a/	.
.	.	.	.	8a/	8a\	.	.	.
4DD/	.	4F/ 4A/	.	8a/)	8a\	.	4dd\	.
.	.	.	.	8a/J	8a\J	.	.	.
=93	=93	=93	=93	=93	=93	=93	=93	=93
4FF/	.	4A\ 4f\	.	(8a/L	8a\L	.	4cc\	.
.	.	.	.	8a/	8a\	.	.	.
4r	.	4r	.	8a/	8a\	.	4a/)	.
.	.	.	.	8a/	8a\	.	.	.
4AA/	<	4r	.	8a/)	8a\	.	(4cc\	<
.	.	.	.	8a/J	8a\J	.	.	.
=94	=94	=94	=94	=94	=94	=94	=94	=94
4CC/	.	4E/ 4c/ 4e/	.	(8a/L	8a\L	.	4aa\	>
.	.	.	.	8a/	8a\	.	.	.
4r	.	4r	.	8a/	8a\	.	4cc\)	.
.	.	.	.	8a/	8a\	.	.	.
4AA/	.	4E/ 4c/	.	8a/)	8a\	.	(4ee\	<
.	.	.	.	8a/J	8a\J	.	.	.
=95	=95	=95	=95	=95	=95	=95	=95	=95
4CC/	<	4E/ 4c/ 4e/	.	(8a/L	8a\L	.	4aa\	>
.	.	.	.	8a/	8a\	.	.	.
4r	.	4r	.	8a/	8a\	.	4cc\)	.
.	.	.	.	8a/	8a\	.	.	.
4AA/	<	4E/ 4c/	.	8a/)	8a\	.	(4ee\	<
.	.	.	.	8a/J	8a\J	.	.	.
=96	=96	=96	=96	=96	=96	=96	=96	=96
4CC/	.	4E/ 4c/ 4e/	.	(8a/L	8a\L	.	4aa\	>
.	.	.	.	8a/	8a\	.	.	.
4r	<	4r	.	8a/	8a\	.	4cc\)	.
.	.	.	.	8a/	8a\	.	.	.
4DD/	.	4A/	.	8a/)	8a\	.	(4ff\	>
.	.	.	.	8a/J	8a\J	.	.	.
=97	=97	=97	=97	=97	=97	=97	=97	=97
4EE/	.	4c\	.	(8a/L	8a\L	.	4ee\	.
.	.	.	.	8a/	8a\	.	.	.
4r	.	4r	.	8a/	8a\	.	4a/)	.
.	.	.	.	8a/	8a\	.	.	.
4FF/	.	4A/ 4d/	.	8a/)	8a\	.	(4dd\	>
.	.	.	.	8a/J	8a\J	.	.	.
=98	=98	=98	=98	=98	=98	=98	=98	=98
4AA/	.	4A\ 4e\	.	(8a/L	8a\L	.	[2.cc#\)	.
.	.	.	.	8a/	8a\	.	.	.
4r	.	4r	.	8a/	8a\	.	.	.
.	.	.	.	8a/	8a\	.	.	.
4r	.	4r	.	8a/)	8a\	.	.	.
.	.	.	.	8a/J	8a\J	.	.	.
=99	=99	=99	=99	=99	=99	=99	=99	=99
4r	.	4r	.	(8a/L	8a\L	.	2cc#\]	.
.	.	.	.	8a/	8a\	.	.	.
4r	.	4r	.	8a/	8a\	.	.	.
.	.	.	.	8a/	8a\	.	.	.
4FF/	.	4A/ 4d/	.	8a/)	8a\	.	(4dd\	>
.	.	.	.	8a/J	8a\J	.	.	.
=100	=100	=100	=100	=100	=100	=100	=100	=100
4AA/	.	4A\ 4e\	.	(8a/L	8a\L	.	[2.cc#\)	.
.	.	.	.	8a/	8a\	.	.	.
4r	.	4r	.	8a/	8a\	.	.	.
.	.	.	.	8a/	8a\	.	.	.
4r	.	4r	.	8a/)	8a\	.	.	.
.	.	.	.	8a/J	8a\J	.	.	.
=101	=101	=101	=101	=101	=101	=101	=101	=101
4r	.	4r	.	(8a/L	8a\L	.	2cc#\]	.
.	.	.	.	8a/	8a\	.	.	.
4r	.	4r	.	8a/)	8a\	.	.	.
.	.	.	.	8a/J	8a\J	.	.	.
*	*	*	*	*v	*v	*	*	*
(4EE-/	.	(4c\	.	(8g/L	.	(4ccn\	>
.	.	.	.	8G/J	.	.	.
=102	=102	=102	=102	=102	=102	=102	=102
[2.GG/)	>	[2.d\)	.	4.g/L	.	[2.bn\)	.
.	.	.	.	4.G/J)	.	.	.
=103	=103	=103	=103	=103	=103	=103	=103
2GG/]	.	2d\]	.	(4.g/L	.	2b\]	.
.	.	.	.	4.G/J)	.	.	.
(4EE-/	.	(4c\	>	.	.	(4cc\	.
=104	=104	=104	=104	=104	=104	=104	=104
[2.GG/)	>	[2.d\)	.	(4.g/L	.	[2.bn\)	>
.	.	.	.	4.G/J)	.	.	.
=105	=105	=105	=105	=105	=105	=105	=105
2GG/]	.	2d\]	.	(8g/L	.	2b\]	.
.	.	.	.	8G/J	.	.	.
.	.	.	.	8g/L	.	.	.
.	.	.	.	8G/J)	.	.	.
(4DD-/	.	(4Bn/	.	(8f/L	.	(4b-\	.
.	.	.	.	8B-/J	.	.	.
=106	=106	=106	=106	=106	=106	=106	=106
2.FF/)	f	4c\	f	8f/L	.	4a/	f
.	.	.	.	8c/J	.	.	.
.	.	4c#\	.	8e/L	.	4g/	.
.	.	.	.	8B-/J	.	.	.
.	.	4d\)	.	8A/L	.	4f/)	.
.	.	.	.	8d/J)	.	.	.
=107	=107	=107	=107	=107	=107	=107	=107
2.GG/	.	(2G/	.	(8c/L	.	(2e/	.
.	.	.	.	8G/J	.	.	.
.	.	.	.	8c/L	.	.	.
.	.	.	.	8G/J	.	.	.
.	.	4F/)	.	8Bn/L	.	4d/)	.
.	.	.	.	8G/J)	.	.	.
=108	=108	=108	=108	=108	=108	=108	=108
2CC/	.	2E/	.	(8c/L	.	2c/	.
.	.	.	.	8G/J	.	.	.
.	.	.	.	8c/L	.	.	.
.	.	.	.	8G/J	.	.	.
4r	.	4r	.	8e/L	.	4r	.
.	.	.	.	8c/J	.	.	.
=109	=109	=109	=109	=109	=109	=109	=109
4r	.	2.r	.	8g/L	.	4r	.
.	.	.	.	8e/J	.	.	.
4r	.	.	.	8g/L	.	4r	.
.	.	.	.	8e/J)	.	.	.
4AA/	p	.	.	8a/	p	4cc\	p
.	.	.	.	8a\	.	.	.
=110:|!	=110:|!	=110:|!	=110:|!	=110:|!	=110:|!	=110:|!	=110:|!
*>D	*>D	*>D	*>D	*>D	*>D	*>D	*>D
2.r	.	2.r	.	(8e/L	.	4r	.
.	.	.	.	8c/J	.	.	.
.	.	.	.	8e/L	.	4r	.
.	.	.	.	8c/J	.	.	.
.	.	.	.	8g/L	.	(4g/	p
.	.	.	.	8e/J)	.	.	.
=111	=111	=111	=111	=111	=111	=111	=111
4r	.	(4.C/L	p	4r	.	[2.cc\)	.
(4G\	p	.	.	(4e/	p	.	.
.	.	4.c/J)	.	.	.	.	.
4F\	.	.	.	4a/	.	.	.
=112	=112	=112	=112	=112	=112	=112	=112
4E\	.	(4.C/L	.	4g/	.	4cc\]	.
4G\)	.	.	.	4e/)	.	4r	.
.	.	4.c/J)	.	.	.	.	.
4r	.	.	.	4r	.	(4g/	.
=113	=113	=113	=113	=113	=113	=113	=113
4r	.	(4.C/L	.	4r	.	[2.cc\)	.
(4G\	.	.	.	(4e/	.	.	.
.	.	4.c/J)	.	.	.	.	.
4F\	.	.	.	4a/	.	.	.
=114	=114	=114	=114	=114	=114	=114	=114
4E\	.	(8C/L	.	4g/	.	4cc\]	.
.	.	8c/J	.	.	.	.	.
4G\)	.	8C/L	.	4e/)	.	4r	.
.	.	8c/J	.	.	.	.	.
4r	.	8E/L	.	4r	.	(4g/	.
.	.	8e/J)	.	.	.	.	.
=115	=115	=115	=115	=115	=115	=115	=115
4r	.	(4.E/L	.	4r	.	[2.ee\)	.
(4Bn\	.	.	.	(4g/	.	.	.
.	.	4.e/J)	.	.	.	.	.
4A\	.	.	.	4cc\	.	.	.
=116	=116	=116	=116	=116	=116	=116	=116
4G\	.	(4.E/L	.	4bn\	.	4ee\]	.
4Bn\)	.	.	.	4g/)	.	4r	.
.	.	4.e/J)	.	.	.	.	.
4r	.	.	.	4r	.	(4g/	.
=117	=117	=117	=117	=117	=117	=117	=117
4r	.	(4.E/L	.	4r	.	[2.ee\)	.
(4Bn\	.	.	.	(4g/	.	.	.
.	.	4.e/J)	.	.	.	.	.
4A\	.	.	.	4cc\	.	.	.
=118	=118	=118	=118	=118	=118	=118	=118
4G\	.	(4.E/L	.	4bn\	.	2.ee\_	.
4Bn\)	.	.	.	4g/)	.	.	.
.	.	4.e/J)	.	.	.	.	.
(4A\	.	.	.	(4cc\	.	.	.
=119	=119	=119	=119	=119	=119	=119	=119
4G\	.	(4.E/L	.	4bn\	.	2.ee\_	.
4Bn\)	.	.	.	4g/)	.	.	.
.	.	4.e/J)	.	.	.	.	.
(4A\	.	.	.	(4cc\	.	.	.
=120	=120	=120	=120	=120	=120	=120	=120
4G\	.	(4.E/L	.	4bn\	.	2ee\]	.
4Bn\)	.	.	.	4g/)	.	.	.
.	.	4.e/J)	.	.	.	.	.
(4A\	.	.	.	(4cc\	.	4r	.
=121	=121	=121	=121	=121	=121	=121	=121
2G\	>	(8E/L	.	(2bn\)	>	2.r	.
.	.	8e/J	.	.	.	.	.
.	.	8E/L	.	.	.	.	.
.	.	8e/J	.	.	.	.	.
[4Bn\	>	8E/L	.	[4g/	>	.	.
.	.	8G/J	.	.	.	.	.
=122	=122	=122	=122	=122	=122	=122	=122
4B\]	.	8E/L	.	4g/]	.	4r	.
.	.	8G/J	.	.	.	.	.
4c\)	.	8C/L	.	2b-\)	.	4G/ 4e/ 4cc/	.
.	.	8c/J	.	.	.	.	.
4r	.	8C/L	.	.	.	4r	.
.	.	8c/J)	.	.	.	.	.
=123	=123	=123	=123	=123	=123	=123	=123
*	*	*	*	*^	*	*	*
4FF/ 4AA/ 4F/ 4A/	p	4r	.	8a/L	8a\L	p	4c/ 4a/ 4ff/	.
.	.	.	.	8a/	8a\	.	.	.
*	*	*^	*	*	*	*	*	*
4r	.	4a/	4a\	p	8a/	8a\	.	4r	.
.	.	.	.	.	8a/	8a\	.	.	.
*	*	*v	*v	*	*	*	*	*	*
4DD/	.	4r	.	8a/	8a\	.	4A/ 4f/ 4dd/	.
.	.	.	.	8a/J	8a\J	.	.	.
=124	=124	=124	=124	=124	=124	=124	=124	=124
4FF/ 4AA/ 4F/ 4A/	.	4r	.	8a/L	8a\L	.	4A/ 4f/ 4cc/	.
.	.	.	.	8a/	8a\	.	.	.
*	*	*^	*	*	*	*	*	*
4r	.	4a/	4a\	.	8a/	8a\	.	4r	.
.	.	.	.	.	8a/	8a\	.	.	.
*	*	*v	*v	*	*	*	*	*	*
4AA/	.	4r	.	8a/	8a\	.	4cc\	.
.	.	.	.	8a/J	8a\J	.	.	.
=125	=125	=125	=125	=125	=125	=125	=125	=125
4FF/ 4AA/ 4F/ 4A/	.	4r	.	8a/L	8a\L	.	4c/ 4a/ 4ff/	.
.	.	.	.	8a/	8a\	.	.	.
*	*	*^	*	*	*	*	*	*
4r	.	4a/	4a\	.	8a/	8a\	.	4r	.
.	.	.	.	.	8a/	8a\	.	.	.
*	*	*v	*v	*	*	*	*	*	*
4DD/	.	4r	.	8a/	8a\	.	4A/ 4f/ 4dd/	.
.	.	.	.	8a/J	8a\J	.	.	.
=126	=126	=126	=126	=126	=126	=126	=126	=126
4FF/ 4AA/ 4F/ 4A/	.	4r	.	8a/L	8a\L	.	4A/ 4f/ 4cc/	.
.	.	.	.	8a/	8a\	.	.	.
*	*	*^	*	*	*	*	*	*
4r	.	4a/	4a\	.	8a/	8a\	.	4r	.
.	.	.	.	.	8a/	8a\	.	.	.
*	*	*v	*v	*	*	*	*	*	*
4AA/	.	4r	.	8a/	8a\	.	4cc\	.
.	.	.	.	8a/J	8a\J	.	.	.
=127	=127	=127	=127	=127	=127	=127	=127	=127
4CC/ 4AA/ 4E-/	<	4r	.	8a/L	8a\L	.	4e-\ 4cc\ 4aa\	.
.	.	.	.	8a/	8a\	.	.	.
4r	.	4C\ 4c\ 4e-\ 4cc\	.	8a/	8a\	.	4r	<
.	.	.	.	8a/	8a\	.	.	.
4AA/	.	4r	.	8a/	8a\	.	4ee-\	.
.	.	.	.	8a/J	8a\J	.	.	.
=128	=128	=128	=128	=128	=128	=128	=128	=128
4CC/ 4AA/ 4E-/	.	4r	.	8a/L	8a\L	.	4e-\ 4cc\ 4aa\	.
.	.	.	.	8a/	8a\	.	.	.
4r	.	4C\ 4c\ 4e-\ 4cc\	.	8a/	8a\	.	4r	.
.	.	.	.	8a/	8a\	.	.	.
4AA/	.	4r	.	8a/	8a\	.	4ee-\	.
.	.	.	.	8a/J	8a\J	.	.	.
=129	=129	=129	=129	=129	=129	=129	=129	=129
4CC/ 4AA/ 4E-/	.	4C/ 4c/ 4e-/ 4a/	.	8a/L	8a\L	.	4e-\ 4cc\ 4aa\	f
.	.	.	.	8a/	8a\	.	.	.
4r	.	4r	.	8a/	8a\	.	4r	<
.	.	.	.	8a/	8a\	.	.	.
4r	.	8a/	<	8a/	8a\	.	4r	.
.	.	8a\	.	8a/J	8a\J	.	.	.
=130	=130	=130	=130	=130	=130	=130	=130	=130
*	*	*^	*	*	*	*	*	*
2.r	.	8a/L	8a\L	.	8a/L	8a\L	.	2.r	.
.	.	8a/	8a\	.	8a/	8a\	.	.	.
.	.	8a/	8a\	.	8a/	8a\	.	.	.
.	.	8a/	8a\	.	8a/	8a\	.	.	.
.	.	8a/	8a\	.	8a/	8a\	.	.	.
.	.	8a/J	8a\J	.	8a/J	8a\J	.	.	.
*	*	*v	*v	*	*	*	*	*	*
*	*	*	*	*v	*v	*	*	*
=131	=131	=131	=131	=131	=131	=131	=131
2FF/	.	(8a\L	f	(4ee-\	f	(4gg\	f
.	.	8f\	.	.	.	.	.
.	.	8a\	.	4dd\	.	4ff\	.
.	.	8f\	.	.	.	.	.
4r	f	8c\	.	4a/)	.	4ee-\)	.
.	.	8f\J)	.	.	.	.	.
=132	=132	=132	=132	=132	=132	=132	=132
2BB-/	.	(8B-/L	.	(4b-\	.	(4dd\	.
.	.	8d/	.	.	.	.	.
.	.	8A/	.	4f#/	.	4cc\	.
.	.	8d/	.	.	.	.	.
4r	.	8G/	.	4g/)	.	4b-\)	.
.	.	8d/J)	.	.	.	.	.
=133	=133	=133	=133	=133	=133	=133	=133
2C/	.	(4.c/L	.	4f/	.	(4a/	.
.	.	.	.	4g/	.	4b-\	.
.	.	4.C/J)	.	.	.	.	.
4FF/	.	.	.	4a-/	.	4bn\)	.
=134	=134	=134	=134	=134	=134	=134	=134
2CC/	.	(4.c/L	.	4a/	.	(4cc\	.
.	.	.	.	2e/	.	4g/	.
.	.	4.C/J)	.	.	.	.	.
4C/	.	.	.	.	.	4b-\)	.
=135	=135	=135	=135	=135	=135	=135	=135
(4FF/	.	(8c/L	.	(8f\L	.	(8a\L	.
.	.	8A/J)	.	8ee-\J)	.	8gg\J)	.
4GG/	.	(4B-/	.	(8ee-\L	.	(8gg\L	.
.	.	.	.	8dd\J)	.	8ff\J)	.
4AA/)	.	4c\	.	(8dd\L	.	(8ff\L	.
.	.	.	.	8cc\J)	.	8ee-\J)	.
=136	=136	=136	=136	=136	=136	=136	=136
(4BB-/	.	4d\	.	(8cc\L	.	(8ee-\L	.
.	.	.	.	8b-\J)	.	8dd\J)	.
4D\	.	4f#\)	.	(8b-/L	.	(8dd\L	.
.	.	.	.	8a/J)	.	8cc\J)	.
4G\)	.	(8g\L	.	(8a/L	.	(8cc\L	.
.	.	8d\J)	.	8g/J)	.	8b-\J)	.
=137	=137	=137	=137	=137	=137	=137	=137
(2C/	.	(4.c/L	.	(4f/	.	(4a/	.
.	.	.	.	4g/	.	4b-\	.
.	.	4.C/J)	.	.	.	.	.
4FF/)	.	.	.	4g#/)	.	4bn\)	.
=138	=138	=138	=138	=138	=138	=138	=138
(2CC/	.	(4.c/L	.	(4a/	.	(4cc\	.
.	.	.	.	4e/	<	4g/	<
.	.	4.C/J)	.	.	.	.	.
4C/)	.	.	.	4b-'\)	.	4gg'\)	.
=139	=139	=139	=139	=139	=139	=139	=139
*	*	*	*	*^	*	*	*
4FF/	p	4c\	p	(8a/L	8a\L	p	4ff\	p
.	.	.	.	8a/	8a\	.	.	.
4r	.	4r	.	8a/	8a\	.	4r	.
.	.	.	.	8a/	8a\	.	.	.
4r	.	4r	.	8a/)	8a\	.	4r	.
.	.	.	.	8a/J	8a\J	.	.	.
=140	=140	=140	=140	=140	=140	=140	=140	=140
4DD/	.	4A\ 4f\ 4a\	.	(8a/L	8a\L	.	4A/ 4f/ 4dd/	.
.	.	.	.	8a/	8a\	.	.	.
4r	.	4r	.	8a/	8a\	.	4r	.
.	.	.	.	8a/	8a\	.	.	.
4r	.	4r	.	8a/)	8a\	.	4r	.
.	.	.	.	8a/J	8a\J	.	.	.
=141	=141	=141	=141	=141	=141	=141	=141	=141
4FF/	.	4A\ 4f\ 4a\	.	(8a/L	8a\L	.	4A/ 4f/ 4cc/	.
.	.	.	.	8a/	8a\	.	.	.
4r	.	4r	.	8a/	8a\	.	4r	.
.	.	.	.	8a/	8a\	.	.	.
4r	.	4r	.	8a/)	8a\	.	4r	.
.	.	.	.	8a/J	8a\J	.	.	.
=142	=142	=142	=142	=142	=142	=142	=142	=142
4CC/	.	4C/ 4A/ 4e/	.	(8a/L	8a\L	.	4c/ 4e/ 4a/	.
.	.	.	.	8a/	8a\	.	.	.
4r	.	4r	.	8a/	8a\	.	4r	.
.	.	.	.	8a/	8a\	.	.	.
4r	.	4r	.	8a/)	8a\	.	4r	.
.	.	.	.	8a/J	8a\J	.	.	.
=143	=143	=143	=143	=143	=143	=143	=143	=143
4FF/	.	4C/ 4A/ 4e/	.	(8a/L	8a\L	.	4A/ 4f/	.
.	.	.	.	8a/	8a\	.	.	.
4r	.	4r	.	8a/	8a\	.	4r	.
.	.	.	.	8a/	8a\	.	.	.
4r	.	4r	.	8a/)	8a\	.	4r	.
.	.	.	.	8a/J	8a\J	.	.	.
=144	=144	=144	=144	=144	=144	=144	=144	=144
4DD/	.	4F/ 4A/ 4d/	.	(8a/L	8a\L	.	4d/	.
.	.	.	.	8a/	8a\	.	.	.
4r	.	4r	.	8a/	8a\	.	4r	.
.	.	.	.	8a/	8a\	.	.	.
4r	.	4r	.	8a/)	8a\	.	4r	.
.	.	.	.	8a/J	8a\J	.	.	.
=145	=145	=145	=145	=145	=145	=145	=145	=145
4FF/	.	4C/ 4A/	.	(8a/L	8a\L	.	4c/	.
.	.	.	.	8a/	8a\	.	.	.
4r	.	4r	.	8a/	8a\	.	4r	.
.	.	.	.	8a/	8a\	.	.	.
4r	.	4r	.	8a/)	8a\	.	4r	.
.	.	.	.	8a/J	8a\J	.	.	.
=146	=146	=146	=146	=146	=146	=146	=146	=146
4CC/	.	4E/ 4A/	.	(8a/L	8a\L	.	4A/	.
.	.	.	.	8a/	8a\	.	.	.
4r	.	4r	.	8a/	8a\	.	4r	.
.	.	.	.	8a/	8a\	.	.	.
4r	.	4r	.	8a/)	8a\	.	4r	.
.	.	.	.	8a/J	8a\J	.	.	.
=147	=147	=147	=147	=147	=147	=147	=147	=147
4FF/ 4AA/ 4F/ 4A/	.	4C/ 4A/ 4f/ 4a/	.	(8a/L	8a\L	.	4c/ 4f/ 4a/ 4ff/	.
.	.	.	.	8a/	8a\	.	.	.
4r	.	4r	.	8a/	8a\	.	4r	.
.	.	.	.	8a/	8a\	.	.	.
4r	.	4r	.	8a/)	8a\	.	4r	.
.	.	.	.	8a/J	8a\J	.	.	.
=148	=148	=148	=148	=148	=148	=148	=148	=148
2.r	.	2.r	.	(8a/L	8a\L	.	2.r	.
.	.	.	.	8a/	8a\	.	.	.
.	.	.	.	8a/	8a\	.	.	.
.	.	.	.	8a/	8a\	.	.	.
.	.	.	.	8a/)	8a\	.	.	.
.	.	.	.	8a/J	8a\J	.	.	.
*	*	*	*	*v	*v	*	*	*
=149	=149	=149	=149	=149	=149	=149	=149
2.r	.	(8f\L	p	(8a-/L	.	2.r	.
.	.	8a-\	.	8f/	.	.	.
.	.	8f\	.	8a-/	.	.	.
.	.	8a-\	.	8f/	.	.	.
.	.	8f\	.	8a-/	.	.	.
.	.	8a-\J	.	8f/J	.	.	.
=150	=150	=150	=150	=150	=150	=150	=150
2r	.	8f\L	.	8a-/L	.	2r	.
.	.	8a-\	.	8f/	.	.	.
.	.	8f\	.	8a-/	.	.	.
.	.	8a-\J)	.	8f/J)	.	.	.
=	=	=	=	=	=	=	=
*-	*-	*-	*-	*-	*-	*-	*-
!!!ENC: Craig Stuart Sapp
!!!END: 2008/02/11/
